assets/images/logos/whisp-logotype.svg

<?xml version="1.0" encoding="UTF-8"?><svg id="Layer_2" xmlns="http://www.w3.org/2000/svg" viewBox="0 0 146.0986 44.931"><g id="Components"><g id="dcdd2572-5ad2-4bb6-8208-0c122b2d1117_10"><path d="M133.4146,30.734c1.561,0,2.829-.569,3.805-1.707.975-1.138,1.463-2.911,1.463-5.318,0-2.374-.488-4.122-1.463-5.244-.976-1.122-2.244-1.683-3.805-1.683-1.594,0-2.879.561-3.854,1.683-.976,1.122-1.464,2.87-1.464,5.244,0,2.407.488,4.18,1.464,5.318.975,1.138,2.26,1.707,3.854,1.707ZM124.5356,44.931c-2.472,0-3.708-1.252-3.708-3.757V15.074c0-2.471,1.203-3.707,3.61-3.707,2.439,0,3.659,1.236,3.659,3.707v.147c.683-1.204,1.691-2.163,3.025-2.878,1.333-.716,2.829-1.074,4.488-1.074,2.081,0,3.911.504,5.488,1.513,1.578,1.008,2.805,2.439,3.683,4.293.879,1.854,1.318,4.065,1.318,6.634s-.439,4.79-1.318,6.66c-.878,1.87-2.105,3.317-3.683,4.341-1.577,1.025-3.407,1.537-5.488,1.537-1.594,0-3.049-.341-4.366-1.024-1.318-.683-2.334-1.594-3.049-2.732v8.683c0,2.505-1.22,3.757-3.659,3.757ZM105.9966,36.247c-1.431,0-2.902-.13-4.415-.39-1.512-.26-2.886-.699-4.122-1.317-.813-.423-1.342-.96-1.586-1.61-.243-.651-.252-1.285-.024-1.903.228-.618.634-1.081,1.22-1.39.585-.309,1.268-.301,2.049.024,1.333.553,2.561.943,3.683,1.171,1.122.228,2.203.342,3.244.342,1.366,0,2.374-.22,3.025-.659.65-.439.975-1.016.975-1.732,0-1.138-.829-1.854-2.488-2.146l-5.122-.927c-2.049-.358-3.61-1.09-4.683-2.196-1.074-1.105-1.61-2.553-1.61-4.342,0-1.626.455-3.024,1.366-4.195.91-1.171,2.163-2.082,3.756-2.732,1.594-.651,3.431-.976,5.513-.976,2.862,0,5.399.553,7.61,1.659.748.358,1.212.862,1.391,1.512.179.651.138,1.285-.122,1.903-.26.618-.683,1.081-1.269,1.39-.585.309-1.284.285-2.097-.073-1.074-.488-2.049-.837-2.927-1.049-.879-.211-1.708-.317-2.489-.317-1.463,0-2.52.236-3.171.707-.65.472-.975,1.066-.975,1.781,0,1.138.764,1.854,2.293,2.147l5.122.927c2.114.357,3.724,1.065,4.83,2.122,1.106,1.057,1.658,2.496,1.658,4.317,0,2.505-.975,4.456-2.927,5.854-1.951,1.399-4.52,2.098-7.708,2.098ZM87.4586,36.101c-1.203,0-2.122-.35-2.756-1.049-.635-.699-.952-1.683-.952-2.952V15.416c0-2.699,1.236-4.049,3.708-4.049,1.171,0,2.073.349,2.708,1.049.634.699.951,1.699.951,3v16.684c0,1.269-.309,2.253-.927,2.952-.618.699-1.529,1.049-2.732,1.049ZM58.4316,36.15c-2.472,0-3.708-1.253-3.708-3.757V4.634c0-2.504,1.236-3.756,3.708-3.756,2.439,0,3.659,1.252,3.659,3.756v10.392c.845-1.236,1.935-2.171,3.268-2.805,1.334-.635,2.814-.952,4.44-.952,5.626,0,8.44,3.35,8.44,10.05v11.074c0,2.504-1.236,3.757-3.708,3.757-1.171,0-2.073-.326-2.708-.976-.634-.651-.951-1.577-.951-2.781v-10.733c0-1.658-.309-2.853-.927-3.585-.618-.732-1.528-1.098-2.732-1.098-1.561,0-2.805.488-3.732,1.464-.927.975-1.39,2.276-1.39,3.902v10.05c0,2.504-1.22,3.757-3.659,3.757ZM14.2426,36.15c-1.073,0-1.927-.252-2.561-.757-.635-.504-1.147-1.276-1.537-2.317L.2896,5.366c-.455-1.236-.374-2.293.244-3.171.618-.878,1.675-1.317,3.171-1.317,1.041,0,1.846.244,2.415.732.569.488,1.033,1.252,1.391,2.293l7.025,20.928L21.9506,3.951c.358-1.04.829-1.813,1.415-2.317.585-.504,1.349-.756,2.293-.756.91,0,1.642.252,2.195.756.553.504,1.024,1.293,1.415,2.366l7.171,21.222,7.318-21.319c.325-1.009.78-1.765,1.366-2.269.585-.504,1.382-.756,2.39-.756,1.269,0,2.196.439,2.781,1.317.585.878.651,1.935.195,3.171l-9.952,27.759c-.358,1.008-.854,1.764-1.488,2.268-.634.505-1.472.757-2.512.757-1.041,0-1.87-.252-2.488-.757-.618-.504-1.122-1.276-1.513-2.317l-7.122-20.197-7.221,20.246c-.39,1.008-.886,1.764-1.487,2.268-.602.505-1.423.757-2.464.757Z" style="fill:#0d6efd; fill-rule:evenodd; stroke-width:0px;"/><path d="M87.4586,7.366c-1.366,0-2.415-.317-3.147-.951-.731-.634-1.097-1.537-1.097-2.707,0-1.204.366-2.123,1.097-2.757.732-.634,1.781-.951,3.147-.951,2.797,0,4.196,1.236,4.196,3.708,0,2.439-1.399,3.658-4.196,3.658Z" style="fill:#0d6efd; stroke-width:0px;"/></g></g></svg>

<?xml version="1.0" encoding="UTF-8" standalone="no"?>
<!DOCTYPE svg PUBLIC "-//W3C//DTD SVG 1.1//EN" "http://www.w3.org/Graphics/SVG/1.1/DTD/svg11.dtd">
<svg width="100%" height="100%" viewBox="0 0 147 45" version="1.1" xmlns="http://www.w3.org/2000/svg" xmlns:xlink="http://www.w3.org/1999/xlink" xml:space="preserve" xmlns:serif="http://www.serif.com/" style="fill-rule:evenodd;clip-rule:evenodd;stroke-linejoin:round;stroke-miterlimit:2;">
    <g id="Components">
        <g id="dcdd2572-5ad2-4bb6-8208-0c122b2d1117_7">
            <path d="M133.415,30.734C134.976,30.734 136.244,30.165 137.22,29.027C138.195,27.889 138.683,26.116 138.683,23.709C138.683,21.335 138.195,19.587 137.22,18.465C136.244,17.343 134.976,16.782 133.415,16.782C131.821,16.782 130.536,17.343 129.561,18.465C128.585,19.587 128.097,21.335 128.097,23.709C128.097,26.116 128.585,27.889 129.561,29.027C130.536,30.165 131.821,30.734 133.415,30.734ZM124.536,44.931C122.064,44.931 120.828,43.679 120.828,41.174L120.828,15.074C120.828,12.603 122.031,11.367 124.438,11.367C126.877,11.367 128.097,12.603 128.097,15.074L128.097,15.221C128.78,14.017 129.788,13.058 131.122,12.343C132.455,11.627 133.951,11.269 135.61,11.269C137.691,11.269 139.521,11.773 141.098,12.782C142.676,13.79 143.903,15.221 144.781,17.075C145.66,18.929 146.099,21.14 146.099,23.709C146.099,26.278 145.66,28.499 144.781,30.369C143.903,32.239 142.676,33.686 141.098,34.71C139.521,35.735 137.691,36.247 135.61,36.247C134.016,36.247 132.561,35.906 131.244,35.223C129.926,34.54 128.91,33.629 128.195,32.491L128.195,41.174C128.195,43.679 126.975,44.931 124.536,44.931ZM105.997,36.247C104.566,36.247 103.095,36.117 101.582,35.857C100.07,35.597 98.696,35.158 97.46,34.54C96.647,34.117 96.118,33.58 95.874,32.93C95.631,32.279 95.622,31.645 95.85,31.027C96.078,30.409 96.484,29.946 97.07,29.637C97.655,29.328 98.338,29.336 99.119,29.661C100.452,30.214 101.68,30.604 102.802,30.832C103.924,31.06 105.005,31.174 106.046,31.174C107.412,31.174 108.42,30.954 109.071,30.515C109.721,30.076 110.046,29.499 110.046,28.783C110.046,27.645 109.217,26.929 107.558,26.637L102.436,25.71C100.387,25.352 98.826,24.62 97.753,23.514C96.679,22.409 96.143,20.961 96.143,19.172C96.143,17.546 96.598,16.148 97.509,14.977C98.419,13.806 99.672,12.895 101.265,12.245C102.859,11.594 104.696,11.269 106.778,11.269C109.64,11.269 112.177,11.822 114.388,12.928C115.136,13.286 115.6,13.79 115.779,14.44C115.958,15.091 115.917,15.725 115.657,16.343C115.397,16.961 114.974,17.424 114.388,17.733C113.803,18.042 113.104,18.018 112.291,17.66C111.217,17.172 110.242,16.823 109.364,16.611C108.485,16.4 107.656,16.294 106.875,16.294C105.412,16.294 104.355,16.53 103.704,17.001C103.054,17.473 102.729,18.067 102.729,18.782C102.729,19.92 103.493,20.636 105.022,20.929L110.144,21.856C112.258,22.213 113.868,22.921 114.974,23.978C116.08,25.035 116.632,26.474 116.632,28.295C116.632,30.8 115.657,32.751 113.705,34.149C111.754,35.548 109.185,36.247 105.997,36.247ZM87.459,36.101C86.256,36.101 85.337,35.751 84.703,35.052C84.068,34.353 83.751,33.369 83.751,32.1L83.751,15.416C83.751,12.717 84.987,11.367 87.459,11.367C88.63,11.367 89.532,11.716 90.167,12.416C90.801,13.115 91.118,14.115 91.118,15.416L91.118,32.1C91.118,33.369 90.809,34.353 90.191,35.052C89.573,35.751 88.662,36.101 87.459,36.101ZM58.432,36.15C55.96,36.15 54.724,34.897 54.724,32.393L54.724,4.634C54.724,2.13 55.96,0.878 58.432,0.878C60.871,0.878 62.091,2.13 62.091,4.634L62.091,15.026C62.936,13.79 64.026,12.855 65.359,12.221C66.693,11.586 68.173,11.269 69.799,11.269C75.425,11.269 78.239,14.619 78.239,21.319L78.239,32.393C78.239,34.897 77.003,36.15 74.531,36.15C73.36,36.15 72.458,35.824 71.823,35.174C71.189,34.523 70.872,33.597 70.872,32.393L70.872,21.66C70.872,20.002 70.563,18.807 69.945,18.075C69.327,17.343 68.417,16.977 67.213,16.977C65.652,16.977 64.408,17.465 63.481,18.441C62.554,19.416 62.091,20.717 62.091,22.343L62.091,32.393C62.091,34.897 60.871,36.15 58.432,36.15ZM14.243,36.15C13.17,36.15 12.316,35.898 11.682,35.393C11.047,34.889 10.535,34.117 10.145,33.076L0.29,5.366C-0.165,4.13 -0.084,3.073 0.534,2.195C1.152,1.317 2.209,0.878 3.705,0.878C4.746,0.878 5.551,1.122 6.12,1.61C6.689,2.098 7.153,2.862 7.511,3.903L14.536,24.831L21.951,3.951C22.309,2.911 22.78,2.138 23.366,1.634C23.951,1.13 24.715,0.878 25.659,0.878C26.569,0.878 27.301,1.13 27.854,1.634C28.407,2.138 28.878,2.927 29.269,4L36.44,25.222L43.758,3.903C44.083,2.894 44.538,2.138 45.124,1.634C45.709,1.13 46.506,0.878 47.514,0.878C48.783,0.878 49.71,1.317 50.295,2.195C50.88,3.073 50.946,4.13 50.49,5.366L40.538,33.125C40.18,34.133 39.684,34.889 39.05,35.393C38.416,35.898 37.578,36.15 36.538,36.15C35.497,36.15 34.668,35.898 34.05,35.393C33.432,34.889 32.928,34.117 32.537,33.076L25.415,12.879L18.194,33.125C17.804,34.133 17.308,34.889 16.707,35.393C16.105,35.898 15.284,36.15 14.243,36.15Z" style="fill:white;"/>
            <path d="M87.459,7.366C86.093,7.366 85.044,7.049 84.312,6.415C83.581,5.781 83.215,4.878 83.215,3.708C83.215,2.504 83.581,1.585 84.312,0.951C85.044,0.317 86.093,0 87.459,0C90.256,0 91.655,1.236 91.655,3.708C91.655,6.147 90.256,7.366 87.459,7.366Z" style="fill:rgb(13,110,253);fill-rule:nonzero;"/>
        </g>
    </g>
</svg>
